!!!COM: Beethoven, Ludwig van
!!!CDT: 1770///-1827///
!!!OTL: Piano Sonata no. 30
!!!ODT: 1820///
!!!OPS: 109
!!!OMV: 3
!!!OMD: Andante
**kern	**kern	**dynam
*staff2	*staff1	*staff1/2
*Ipiano	*Ipiano	*Ipiano
*>[TA,TA,TB,TB,1A,1A1,1A,1A2,1B,1B1,1B2,Var2,Var3,4I,4A,4A1,4A,4A2,4B,4B1,4B,4B2,Var5,Var6,Theme]	*>[TA,TA,TB,TB,1A,1A1,1A,1A2,1B,1B1,1B2,Var2,Var3,4I,4A,4A1,4A,4A2,4B,4B1,4B,4B2,Var5,Var6,Theme]	*>[TA,TA,TB,TB,1A,1A1,1A,1A2,1B,1B1,1B2,Var2,Var3,4I,4A,4A1,4A,4A2,4B,4B1,4B,4B2,Var5,Var6,Theme]
*>norep[TA,TB,1A,1A2,1B,1B2,Var2,Var3,4I,4A,4A2,4B,4B2,Var5,Var6,Theme]	*>norep[TA,TB,1A,1A2,1B,1B2,Var2,Var3,4I,4A,4A2,4B,4B2,Var5,Var6,Theme]	*>norep[TA,TB,1A,1A2,1B,1B2,Var2,Var3,4I,4A,4A2,4B,4B2,Var5,Var6,Theme]
*>TA	*>TA	*>TA
*k[f#c#g#d#]	*k[f#c#g#d#]	*
*E:	*E:	*
*M3/4	*M3/4	*
*MM84	*MM84	*
*clefF4	*clefG2	*
=1-	=1-	=1-
*	*^	*
!!LO:TX:i:a:t=molto cantabile ed espressivo
!	!LO:TX:i:c:t=mezza voce	!	!
(4EE	(4g#	4B	.
4GG#	4.e	4B	.
4AA	.	4c#	.
.	8f#	.	.
*	*v	*v	*
=2	=2	=2
4BB	4F# 4d#	.
4C#	2F# 2A 2B)	.
4D#/)	.	.
=3	=3	=3
*	*^	*
(4E	4G# 4B (>4g#	4ryy	.
4G#	4.e	4B	.
4A#	.	4c#	.
.	8f#)	.	.
*	*v	*v	*
=4	=4	=4
4B	4d# (>4f#	<
4F#	4c# 4e 4a#	.
8BBL	4d# 4f# 4b)	.
8AAnJ)	.	.
=5	=5	=5
*^	*	*
.	.	(B32qLLL	.
.	.	e32q	.
.	.	g#32qJJJ)	.
*	*	*^	*
4GG#	(2GG#	(4b	4r	[
4G#	.	4.e	4B	>
4AA	4ryy	.	4c#	.
.	.	16g#LL	.	.
.	.	16f#JJ)	.	]]
*v	*v	*	*	*
*	*v	*v	*
!!LO:LB:g=original
=6	=6	=6
4BB 4F#	(4d#	.
4C# 4E	4B	.
.	(A32qLLL	.
.	B32q	.
.	A32q	.
.	G#32qJJJ)	.
4D#) 4F#	4A)	.
=7	=7	=7
*^	*	*
4ryy	(<4E	(4G#	<
2E	4CC# 4C#	4.e^>	.
.	4CCn) 4Cn	.	.
.	.	8A#)	.
*	*	*clefF4	*
=8	=8	=8	=8
*	*	*^	*
(4EE	2CCn	(2A#	(4Gn	p
4GGn	.	.	4E	.
4BB)	4BBB	4B	4D#))	.
*v	*v	*	*	*
*	*v	*v	*
=9:|!|:	=9:|!|:	=9:|!|:
*>TB	*>TB	*>TB
*^	*^	*
*	*	*clefG2yy	*	*
4B	4rBB	(4b	4r	.
4B	(4D#	4.b	4f#	.
4B	4E#	.	4g#X	.
.	.	8cc#	.	.
*v	*v	*	*	*
=10	=10	=10	=10
4F# 4B	4b	4r	.
4C#X 4B	4.an	4e	.
4D# 4B)	.	4f#	.
.	8b	.	.
=11	=11	=11	=11
(4E 4B	4a	4r	.
4BB 4B	4.g#	4e	<
4C# 4c#	.	4e	.
.	8ee	.	.
*	*v	*v	*
!!LO:LB:g=original
=12	=12	=12
4D# 4B	4d# 4g#	.
.	.	[
4D# 4A#	4c# 4f##	>
4GG#\ 4G#\)	4B 4g#)	]]
=13	=13	=13
.	(An32qLLL	.
.	c#32q	.
.	f#X32qJJJ)	.
4FF#\ 4F#\	4a	<
4F# 4A	(4.a	.
4E 4F# 4A	.	.
.	8cc#)	.
=14	=14	=14
[[D#32qLLL	.	.
[[F#32q	.	.
[[A32q	.	.
[>B32qJJJ	.	sf
(d#>32qLLL>	.	.
f#>32q	.	.
a>32qJJJ)	.	.
2D#__ 2F#__ 2A__ 2B_	(4.cc#/	sf >
.	8b/)	.
8D#] 8F#] 8A] 8BL]	(8f#' 8a'L	] p
8E 8G# 8BJ	8e') 8g#'J	.
=15	=15	=15
*^	*^	*
!	!	!LO:TX:c:i:t=mezza voce	!	!
4rA	2BB	(8.g#L	4e	.
.	.	16aJk	.	.
(4G#	.	4.b	(4e	.
4F#)	4BB	.	4d#)	.
.	.	8a)	.	.
*v	*v	*	*	*
*	*v	*v	*
=16	=16	=16
(4EE	2B 2d# 2f# (>2a	.
4BB	.	.
4E)	4B 4e 4g#)	.
!!LO:LB:g=original
=17:|!	=17:|!	=17:|!
*>1A	*>1A	*>1A
!!LO:TX:a:B:t=Molto espressivo
!!LO:TX:a:i:t=Variation I
*M3/4	*M3/4	*
.	(>b8q	.
4EE	(2bb^)	p
4BB 4E 4G# 4B	.	.
4BB 4E 4G# 4B	8.eeL	.
.	16ff#Jk	.
=18	=18	=18
4FF#	4ee	.
4BB 4F# 4A 4B	[4dd#)	.
4BB 4F# 4A 4B	8.dd#L]	.
.	16bJk	.
=19	=19	=19
.	(8qb	.
4GG#	(4.bb^)	.
4BB 4E 4G# 4B	.	.
.	8dd#	.
4BB 4E 4G# 4B	40eeLLL	.
.	40ff#	.
.	40ee	.
.	40dd#	.
.	40eeJJJ	.
.	16ff#LL	.
.	16gg#JJ)	.
=20	=20	=20
4AA	(4gg#	<
4BB 4D# 4F# 4B	4.ff#	.
4BB 4D# 4F# 4B	.	.
.	8dd#)	.
=21	=21	=21
.	(b8q	.
4GG#	(4.bb^)	.
4BB 4E 4G# 4B	.	.
.	8gg#L)	.
4BB 4E 4G# 4B	(8.ff#'	.
.	16ee'Jk)	.
=22	=22	=22
4FF#	(8ee	.
.	4dd#)	.
4BB 4D# 4F# 4A	.	.
.	(8cc#'L	.
4DD# 4BB	8b'	.
.	8a'J)	.
=23	=23	=23
*^	*^	*
4BB	(4EE	(>8aL	2ryy	.
.	.	8g#	.	.
4BB	8DD#L	8f#	.	.
.	8DDnJ	8bJ	.	.
8CC#L	4CC#	8a#L	4a#	.
8FFF#J)	.	8eeJ)	.	.
*v	*v	*	*	*
*	*v	*v	*
!!LO:LB:g=original
=24	=24	=24
*>1A1	*>1A1	*>1A1
*^	*^	*
(8CC#L	2FFF#	(8ff#L	2a#	.
8GGn	.	8ee	.	.
8FF#	.	8ff#	.	.
8EEJ)	.	8ggnJ)	.	.
(8BBB 8FF#L	4ryy	8.dd#L	4b	.
16CC#L	.	.	.	.
16DD#XJJ)	.	16bJk	.	.
*v	*v	*	*	*
*	*v	*v	*
=25:|!	=25:|!	=25:|!
*>1A2	*>1A2	*>1A2
*^	*^	*
(8CC#L	2FFF#	(8ff#L	2a#	.
8GGn	.	8ee	.	.
8FF#	.	8ff#	.	.
8EEJ)	.	8ggnJ)	.	.
(8BBB 8FF#L	4ryy	8.dd#L	4b	.
8CC#) 8EEJ	.	.	.	.
.	.	16bJk	.	.
*v	*v	*	*	*
*	*v	*v	*
=26	=26	=26
.	(b8q	.
4DD# 4FF#	4.bb^)	.
4D# 4F# 4B	.	.
.	(8bL	<
4E# 4G# 4c#	8.b#	[ >
.	16cc#Jk)	]
=27!|:	=27!|:	=27!|:
*>1B	*>1B	*>1B
.	(cc#8q	.
4FF#	4.aa^)	.
4F# 4A	.	.
.	(8aL<	<
4D# 4F# 4B	8.a#	[ >
.	16bJk)	]
=28	=28	=28
.	(b8q	.
*	*^	*
4EE	4.gg#)	2ryy	.
4E 4G# 4B	.	.	.
.	(>8g#L	.	.
4C# [4c#	8.a	[4e	<
.	16eeJk)	.	.
*	*v	*v	*
=29	=29	=29
*^	*	*
8c#L]	4D#	8e] 8eeL	.
[8BJ	.	[8d# [8dd#J	.
8BL]	(4D#	8d#] 8dd#L]	.
8A#	.	8c# 8f##	.
8G#	8GG#L	8B 8g#	.
8F#XJ	8FF#J)	8An 8anJ	.
*v	*v	*	*
!!LO:LB:g=original
=30	=30	=30
.	(aa8q	.
4FF#	4.aaa)	sf
4F# 4A	.	.
.	(8gg#L	<
4C# 4E 4A	8.aa	.
.	16ccc#Jk)	[[
=31	=31	=31
4DD#	(8.aa#L	<
.	16bbJk)	.
4D# 4F# 4A 4B	(8.aa#L	.
.	16bbJk)	[
4E 4G# 4B	(8.aanL	>
.	16gg#Jk)	]]
=32	=32	=32
!	!LO:TX:c:i:t=mezza voce	!
.	(8qgg#	.
4BB	8ggg#L)	.
.	(8qgg#	.
.	[8eeeJ)	.
4G# 4B 4e	(16eeeLL]	.
.	16ddd#J)	.
.	[8ccc#J	.
4F# 4A 4B 4d#	(16ccc#LL]	.
.	16bbJ)	.
.	[8aaJ	.
=33	=33	=33
*>1B1	*>1B1	*>1B1
4EE	8aaL]	.
.	[8aa#J	.
4E 4F# 4A 4B 4d#	16aa#LL]	.
.	(16bbJ	.
.	8ff#J)	.
8E 8G# 8B 8eL	(8.gg#L	<
8D# 8F# 8B 8d#J	.	.
.	16ff#Jk)	.
=34	=34	=34
.	(ff#8q	.
4DD#	4.bb^)	.
4D# 4F# 4B	.	.
.	(8bL	<
4E# 4G# 4c#	8.b#	[ >
.	16cc#Jk)	]
=35:|!	=35:|!	=35:|!
*>1B2	*>1B2	*>1B2
4EE	8aa]L	.
.	[8aa#J	.
4E 4F# 4A 4B 4d#	(16aa#LL]	.
.	16bbJ	.
.	8ff#J)	.
4E 4G# 4B 4e	4gg#	.
!!LO:LB:g=original
=36||	=36||	=36||
*>Var2	*>Var2	*>Var2
!!LO:TX:a:B:t=Leggiermente
!!LO:TX:a:i:t=Variation II
*M3/4	*M3/4	*
16EELL	16r	p
16r	(16BLL	.
16r	16g#JJ)	.
(16EJJ	16r	.
16G#LL<)	16r	.
16r	(16eLL	.
16r	16BJJ)	.
(16GG#JJ	16r	.
16AALL)	16r	.
16r	(16c#LL	.
16r	16f#JJ)	.
(16AJJ	16r	.
=37	=37	=37
16BLL)	16r	.
16r	(16d#LL	.
16rD	16F#JJ)	.
16BBJJ	16r	.
16C#LL	16r	.
16rBB	16E<LL	.
16rD	16B<JJ	.
16c#JJ	16r	.
16d#LL	16r	.
16rF	16B<LL	.
16rBB	16F#<JJ	.
16D#JJ	16r	.
=38	=38	=38
16ELL	16r	.
16rD	16g#LL	.
16rF	16gg#JJ	.
16eJJ	16r	.
*clefG2	*	*
16g#LL	16r	.
16rg	16eeLL	.
16re	16bJJ	.
16G#JJ	16r	.
16A#LL	16r	.
16rg	16cc#LL	.
16rb	16ff#JJ	.
16a#JJ	16r	.
!!LO:LB:g=original
=39	=39	=39
16bLL	16r	<
16r	16dd#LL	.
16r	16ff#JJ	.
16f#JJ	16r	.
16f#LL	16r	.
16r	16aa#LL	.
16r	16eeJJ	.
16cc#JJ	16r	.
16bLL	16r	.
16r	16dd# 16ff#LL	.
16r	16bbJJ	.
16anJJ	16r	.
=40	=40	=40
16g#LL	16r	.
16rb	16bbLL	.
16r	16eeJJ	.
16gg#JJ	16r	.
16eeLL	16r	.
16rb	16gg#LL	.
16rb	16eeeJJ	.
16bJJ	16r	.
16cc#LL	16r	.
16rb	16eeeLL	.
16rb	16fff#JJ	.
16a#JJ	16r	.
=41	=41	=41
16a#LL<	16r	>
16rb	16eeeLL	.
16rb	16ddd#JJ	.
16bJJ	16r	.
16cc#LL	16r	.
16rb	16ddd#LL	.
16rb	16ccc#JJ	.
16eeJJ	16r	.
16dd#LL	16r	.
16rdd	16bbLL	.
16rdd	16aanJJ	.
16ff#JJ	16r	.
=42	=42	=42
16ddnLL	16r	.
16rdd	16aaLL	<
16rdd	16gg#JJ	.
16ffnJJ	16r	.
16cc#LL	16r	.
16rdd	16gg#LL	.
16rdd	16aaJJ	.
16eeJJ	16r	.
16ccnLL	16r	.
16rdd	16bb-LL	.
16rdd	16eeeJJ	.
16ggnJJ	16r	.
!!LO:LB:g=original
=43	=43	=43
16ccnLL	16r	>
*	*8va	*
16rdd	16bb- 16eeeLL	.
16rff	16aa 16fffnJJ	.
16cccnJJ	16r	.
16ccLL	16r	.
16rdd	16bb-X 16gggnLL	.
16r	16ggn 16eeeJJ	.
16cccJJ	16r	.
16bbnLL	16r	.
16r	16bbbnLL	.
16rdd	16bbnJJ	p
*	*X8va	*
16bJJ	16r	.
*clefF4	*	*
=44	=44	=44
!	!LO:TX:c:i:t=teneramente	!
8r	(8g#XL	.
8BB 8E 8G#L	8e)	.
8BB 8E 8G#	8e	.
8BB 8E 8G#	8eJ	.
8BB 8E 8G#	(8.eTL	.
8BB 8E 8G#J	.	.
.	32d#LL	.
.	32eJJJ)	.
=45	=45	=45
*	*^	*
8BB 8F# 8AL	(8aL	(2e	.
8BB 8F# 8A	8f#)	.	.
8BB 8F# 8A	8f#	.	.
8BB 8F# 8A	8f#J	.	.
8BB 8F# 8A	(8.f#TL	4d#)	.
8BB 8F# 8AJ	.	.	.
.	32e#LL	.	.
.	32f#JJJ)	.	.
=46	=46	=46	=46
8BB 8G# 8BL	(8bL	(2f#	.
8BB 8G# 8B	8g#)	.	.
8BB 8G# 8B	8g#	.	.
8BB 8G# 8B	8g#J	.	.
8BB 8G# 8B	(8.g#tL	4e)	.
8BB 8G# 8BJ	.	.	.
.	32f#LL	.	.
.	32g#JJJ)	.	.
!!LO:LB:g=original
=47	=47	=47	=47
8BB 8AL	8c# (8cc#L	2g#	.
8BB 8A	8c# 8a)	.	.
8BB 8A	8c# 8a	.	.
8BB 8AJ	8c# 8aJ	.	.
8B 8d#L	(8.aTL	4f#	.
8B 8d#J	.	.	.
.	32g#LL	.	.
.	32aJJJ)	.	.
*	*v	*v	*
=48	=48	=48
16BBLL	16r	.
16r	16g# 16b 16gg#LL	.
16G# 16B 16eJJ	16r	.
16rF	16g# 16b 16eeJJ	.
16G# 16B 16eLL	16r	.
16r	16g# 16b 16dd#LL	.
16G# 16B 16eJJ	16r	.
16rF	16g# 16b 16eeJJ	.
16G# 16B 16eLL	16r	.
16r	16g# 16b 16dd#LL	.
16G# 16B 16eJJ	16r	.
16rF	16g# 16b 16eeJJ	.
=49	=49	=49
16BBLL	16r	.
16r	16a 16dd# 16ff# 16aaLL	.
16F# 16A 16B 16d#JJ	16r	.
16rF	16a 16dd# 16ff#JJ	.
16F# 16A 16B 16d#LL	16r	.
16rF	16a 16dd# 16ee#LL	.
16F# 16A 16B 16d#JJ	16r	.
16rF	16a 16dd# 16ff#JJ	.
16F# 16A 16B 16d#LL	16r	.
16rF	16a 16dd# 16ee#LL	.
16F# 16A 16B 16d#JJ	16r	.
16rF	16a 16dd# 16ff#JJ	<
=50	=50	=50
16BBLL	16r	.
16r	16b 16een 16gg# 16bbLL	.
16G# 16B 16eJJ	16rb	.
16rF	16b 16ee 16gg#JJ	.
16G# 16B 16eLL	16r	.
16r	16b 16ee 16gg#LL	.
16G# 16B 16eJJ	16rb	.
16rF	16b 16ee 16bbJJ	.
16C#LL	16r	.
16rD	16a# 16ee 16ggn 16aa#LL	.
16Gn 16A# 16eJJ	16rdd	.
16r	16ee 16aa# 16eeeJJ	.
!!LO:LB:g=original
=51	=51	=51
16CnLL	16rdd	>
16rD	16ee 16aa# 16eeeLL	.
16Gn 16A# 16eJJ	16rff	.
16rF	16ff# 16aa# 16fff#JJ	.
16G 16A# 16eLL	16r	.
16rA	16ggn 16aa# 16gggnLL	.
16G 16A# 16eJJ	16rff	.
16rF	16ee 16aa# 16eeeJJ	.
16C 16GLL	16rdd	.
16rD	16ee 16aa# 16eeeLL	p
16BB 16BJJ	16rdd	.
16r	16dd# 16bb 16ddd#JJ	.
*clefG2	*	*
=52	=52	=52
!	!	!LO:DY:t=%s legg.
16d#	16rdd	pp
16r	16ff#LL	.
16r	16bbJJ	.
16bLL	16rdd	.
16d#JJ	16rdd	.
16r	16bbLL	.
16r	16ff#JJ	.
16bLL	16rdd	.
16e#JJ	16rdd	.
16r	16bbLL	.
16r	16ccc#JJ	.
16g#	16rdd	.
=53	=53	=53
16f#LL	16rdd	.
16r	16aaLL	.
16r	16ccc#JJ	.
16cc#JJ	16rdd	.
16enLL	16rdd	.
16rb	16ccc#LL	.
16rb	16aa#JJ	.
16gnJJ	16rdd	.
16ccnLL	16rdd	.
16r	16aanLL	.
16r	16bbJJ	.
16d#JJ	16rdd	.
!!LO:LB:g=original
=54	=54	=54
16eLL	16rdd	.
16r	16gg#LL	.
16r	16bbJJ	.
16eeJJ	16rdd	.
16dd#LL	16rdd	.
16r	16ggg#LL	.
16r	16bbJJ	<
16d#JJ	16rdd	.
16c##LL	16rdd	.
16r	16bbLL	.
16r	16ggg#JJ	.
16cc##JJ	16rdd	.
=55	=55	=55
16dd#LL	16rdd	.
16r	16bbLL	.
16r	16ddd#JJ	.
16d#JJ	16rdd	.
16eLL	16rdd	.
!	!	!LO:HP:t=decresc.
16rg	16gg#LL	>
16rg	16a# 16ff##JJ	.
16d#JJ	16rb	.
16G#LL	16rb	.
16re	16a# 16ff##LL	.
16re	16b 16gg#JJ	.
16F#JJ	16rb	.
=56	=56	=56
16f#LL	16rdd	<
16r	16gg#LL	.
16r	16aanJJ	.
16ee#JJ	16rdd	.
16ff#LL	16rdd	.
16rdd	16aaaLL	.
16rdd	16aaJJ	.
16cc#JJ	16rdd	.
16ff#LL	16rdd	.
16rdd	16aaLL	.
16rdd	16ccc#JJ	.
16cc#JJ	16rdd	.
!!LO:LB:g=original
=57	=57	=57
16ff#LL	16rdd	.
16rdd	16aa#LL	.
16rdd	16bbJJ	.
16dd#JJ	16rdd	.
16aanLL	16rdd	.
*	*8va	*
16rdd	16bbbLL	.
16rdd	16bbJJ	.
16dd#JJ	16rbb	.
16bbLL	16rddd	.
16rff	16aaanLL	.
16rdd	16ggg#JJ	.
*	*X8va	*
16eeJJ	16rdd	.
=58	=58	=58
16bbLL	16rdd	.
16rff	16gg# 16eeeLL	.
16rdd	16eee 16ggg#JJ	.
16bJJ	16rdd	.
16b#LL	16rdd	.
16rb	16gg# 16eeeLL	.
16rb	16ee 16gg#JJ	.
16cc#JJ	16rdd	.
16cc##LL	16rdd	.
16rb	16gg# 16bbLL	.
16rb	16ff# 16aaJJ	.
16dd#JJ	16rdd	.
=59	=59	=59
16eeLL	16rdd	p
16rdd	16ff# 16aaLL	.
16rff	16aa 16fff#JJ	.
*clefF4	*	*
16d#JJ	16rdd	.
16eLL	16rdd	.
16rA	16aa 16fff#LL	.
16rF	16ff# 16aaJJ	.
16D#JJ	16rdd	.
16ELL	16rb	.
16rD	16ff# 16aaLL	.
16rD	16b 16gg#JJ	.
16DnJJ	16rb	.
=60	=60	=60
!	!LO:TX:c:i:t=teneramente	!
(8dnL	(8ddnL	.
8Dn)	8dn)	.
8D	8d	.
8DJ	8dJ	.
8.DTL<	8.dTL	.
32C#LL	32c#LL	.
32DJJJ	32dJJJ	.
!!LO:LB:g=original
=61	=61	=61
*	*^	*
8C# 8E# 8G#L	(8bL	(4dn	.
8C# 8E# 8G#	8g#)	.	.
8C# 8E# 8G#	8g#	4c#	.
8C# 8E# 8G#	8g#J	.	.
8C# 8E# 8G#	8.g#tL	4B	.
8C# 8E# 8G#J	.	.	.
.	32f#LL	.	.
.	32g#JJJ	.	.
=62	=62	=62	=62
8C# 8F# 8AL	(8cc#L	4g#	.
8C# 8F# 8A	8a)	.	.
8C# 8F# 8A	8a	4f#	.
8C# 8F# 8A	8aJ	.	.
8C# 8E 8A	8.aTL	4e)	.
8C# 8E 8AJ	.	.	.
.	32g#LL	.	.
.	32aJJJ	.	.
=63	=63	=63	=63
8BB 8E 8G#L	(8gg#L	8g#L	.
8BB 8E 8G#J	8ee)	8g#J	.
8AA# 8E 8F##L<	8ee	8f##L	.
8AA# 8D# 8F##J	8dd#J	8f##J	.
8GG# 8D# 8G#L<	(16.dd#tLL	8bL	.
.	64cc#LL	.	.
.	64dd#JJJJ)	.	.
8GG# 8BB 8EJ	(16.eeTLL	8bJ	.
.	64dd#LL	.	.
.	64eeJJJJ)	.	.
*	*v	*v	*
=64	=64	=64
16FF# 16F#LL	16r	<
16r	16a 16cc# 16eeLL	.
16F# 16A 16c# 16eJJ	16r	.
16r	16a 16aaJJ	.
16F# 16A 16c# 16eLL	16r	.
16rF	16g# 16gg#LL	.
16F# 16A 16c# 16eJJ	16r	.
16rF	16a 16aaJJ	.
16F# 16A 16c# 16eLL	16r	.
16rF	16b# 16bb#LL	.
16F# 16A 16c# 16eJJ	16rb	.
16rF	16cc# 16ccc#JJ	.
!!LO:LB:g=original
=65	=65	=65
16FF#LL	16r	.
16r	16cc# 16ccc#LL	.
16F# 16A 16B 16d#JJ	16rb	.
16r	16bn 16bbnJJ	.
16F# 16A 16B 16d#LL	16r	.
16rF	16cc# 16ccc#LL	.
16F# 16A 16B 16d#JJ	16rb	.
16rF	16b 16bbJJ	.
16F# 16A 16B 16d#LL	16r	.
16rF	16a 16aaLL	.
16G# 16B 16eJJ	16rb	.
16rF	16g# 16gg#JJ	.
=66	=66	=66
16C#LL	16rdd	.
16rD	16ff# 16fff#LL	p
16G# 16c# 16eJJ	16rff	.
16r	16ee 16eeeJJ	.
16BBLL	16rdd	.
16rD	16gg# 16ggg#LL	.
16G# 16B 16eJJ	16rdd	.
16r	16g# 16gg#JJ	.
16BBLL	16rdd	.
*clefG2	*	*
16rb	16ddn 16ee# 16gg# 16bbLL	.
16cn 16d#X 16f# 16aJJ	16rdd	.
16r	16ccn 16dd# 16ff# 16aaJJ	.
=67	=67	=67
16B 16d# 16f# 16aLL	16r	<
16rb	16b 16dd# 16ff# 16aaLL	.
16cn 16d# 16f# 16aJJ	16rdd	.
16r	16ccn 16dd# 16ff# 16aaJJ	.
16B 16d# 16f# 16aLL<	16r	.
16rb	16b 16dd# 16ff# 16aaLL	.
*clefF4	*	*
16Cn 16F# 16AJJ	16r	>
16r	16d# 16f# 16aJJ	.
16BBB 16BBLL<	16r	.
16rD	16d# 16f# 16aLL	p
16EE 16EJJ	16rb	.
16r	16B 16e 16g#JJ	.
!!LO:LB:g=original
=68||	=68||	=68||
*>Var3	*>Var3	*>Var3
!!LO:TX:a:B:t=Allegro vivace
!!LO:TX:i:a:t=Variation III
*M2/4	*M2/4	*
16G#LL	8e	f
16B	.	.
16A	8r	.
16G#JJ	.	.
16ELL	8g#	.
16G#	.	.
16F#	8r	.
16EJJ	.	.
=69	=69	=69
16D#LL	8b	.
16F#	.	.
16E	8r	.
16D#JJ	.	.
16BBLL<	8dd#	.
16D#	.	.
16C#	8r	.
16BBJJ	.	.
=70	=70	=70
16GG#LL	8ee	.
16BB	.	.
16AA	8r	.
16GG#JJ	.	.
16EELL	8gg#	.
16GG#	.	.
16FF#	8r	.
16EEJJ	.	.
=71	=71	=71
16CC#LL	8aa#z'L	.
16EE	.	.
16DD#	8aa#'	.
16CC#JJ	.	.
16BBBLL	8bb'J	.
16CC#	.	.
16DDn	8r	.
16DD#JJ	.	.
!!LO:LB:g=original
=72	=72	=72
8EE	16gg#LL	f
.	16bb	.
8r	16aa	.
.	16gg#JJ	.
8GG#	16eeLL	.
.	16gg#	.
8r	16ff#	.
.	16eeJJ	.
=73	=73	=73
8BB	16dd#LL	.
.	16ff#	.
8r	16ee	.
.	16dd#JJ	.
8D#	16bLL	.
.	16dd#	.
8r	16cc#	.
.	16bJJ	.
=74	=74	=74
8E	16g#LL	.
.	16b	.
8r	16a	.
.	16g#JJ	.
8G#	16eLL	.
.	16g#	.
8r	16f#	.
.	16eJJ	.
=75	=75	=75
!LO:DY:rj	!	!
8A#z'L	16gnLL	.
.	16e	.
8A#'	16d#	.
.	16eJJ	.
8B'J	16d#LL	.
.	16f#	.
8r	16b	.
.	16d#JJ	.
=76	=76	=76
16G#LL	8e'L	p
16B	.	.
16An	8f#'	.
16G#JJ	.	<
16F#LL	8g#X'	.
16E	.	.
16D#	8a'J	.
16EJJ	.	.
!!LO:LB:g=original
=77	=77	=77
16D#LL	8b'L	.
16F#	.	.
16E	8cc#'	.
16D#JJ	.	.
16C#LL	8cc##'	.
16BB	.	.
16AA#	8dd#'J	.
16AAnJJ	.	.
=78	=78	=78
16GG#LL	8ee'L	.
16BB	.	.
16AA	8ff#'	.
16GG#JJ	.	.
16FF#LL	8ff##'	.
16EE	.	.
16DD#	8gg#'J	.
16EEJJ	.	.
=79	=79	=79
16DD#LL	8aa'L	f
16CC#	.	.
16FF#	8aa#'	.
16EEJJ	.	.
16DD#LL	8bb'	.
16BBB	.	.
16CC#	8aan'J	.
16DD#JJ	.	.
=80	=80	=80
8EE'L	16gg#LL	p
.	16bb	<
8FF#'	16aa	.
.	16gg#JJ	.
8GG#'	16ff#LL	.
.	16ee	.
8AA'J	16dd#	.
.	16eeJJ	.
=81	=81	=81
8BB'L	16dd#LL	.
.	16ff#	.
8C#'	16ee	.
.	16dd#JJ	.
8Dn'	16cc#LL	.
.	16b	.
8D#'J	16a#	.
.	16anJJ	.
!!LO:LB:g=original
=82	=82	=82
8E'L	16g#LL	.
.	16b	.
8F#'	16a	.
.	16g#JJ	.
8G#'	16f#LL	.
.	16e	.
8A'J	16d#	.
.	16eJJ	.
=83	=83	=83
8A#'L	16gnLL	f
.	16e	.
8B'	16g	.
.	16eJJ	.
8cn'	16a#LL	.
.	16e	.
8B'J	16b	.
.	16d#JJ	.
=84	=84	=84
16G#LL	8b'L	p
16B	.	.
16A	8b'	.
16G#JJ	.	.
16F#LL	8b'	.
16E#	.	.
16D#	8cc#'J	.
16E#JJ	.	.
=85	=85	=85
16F#LL	8b'L	.
16A	.	.
16G#	8a'	.
16F#JJ	.	.
16EnLL	8a'	.
16D#	.	.
16C#	8b'J	.
16D#JJ	.	.
=86	=86	=86
16ELL	8a'L	.
16G#	.	.
16F#	8g#'	.
16E'JJ	.	.
16D#LL<	8g#'	.
16C#	.	.
16BB#	8a#'J	.
16C#JJ	.	.
!!LO:LB:g=original
=87	=87	=87
16D#LL	8g#L	<
16C#	.	.
16BBn	8f##	.
16AA#JJ	.	.
16GG#LL	8g#	.
16FF#	.	.
16EE	[8B [8g# [8bJ	.
16DDnJJ	.	.
=88	=88	=88
8CC#	16B] 16g#] 16bLL]	f
.	16an	.
8AA' 8A'L	16cc#	.
.	16bJJ	.
8AA' 8A'	16aLL	.
.	16g#	.
8C#' 8c#'J	16f#	.
.	16eJJ	.
=89	=89	=89
8C#' 8c#'L	16d#LL	.
.	16B	.
8BB' 8B'	16c#	.
.	16d#JJ	.
8AA' 8A'	16eLL	.
.	16f#	.
8GG#' 8G#'J	16g#	.
.	16aJJ	.
=90	=90	=90
8GG#' 8G#'L<	16bLL	.
.	16a#	.
8FF#' 8F#'	16b	.
.	16cc#JJ	.
8FF#' 8F#'	16dd#LL	.
.	16ee	.
8GG#' 8G#'J	16ff#	.
.	16eeJJ	.
=91	=91	=91
8AA' 8A'L<	16dd#LL	.
.	16b	.
8BB' 8B'	16cc#	.
.	16dd#JJ	.
8GG#' 8G#'	16eeLL	.
.	16dd#	.
*clefG2	*	*
8B' 8b'J	16ee	.
.	16ff#JJ	.
!!LO:LB:g=original
=92	=92	=92
8B' 8b'L	16gg#LL	p
.	16bb	.
8B' 8b'	16aa	.
.	16gg#JJ	.
8B' 8b'	16ff#LL	.
.	16ee#	.
8c#' 8cc#'J	16dd#	.
.	16ee#JJ	.
=93	=93	=93
8B' 8b'L	16ff#LL	.
.	16aa	.
8A' 8a'	16gg#	.
.	16ff#JJ	.
8A' 8a'	16eenLL	.
.	16dd#	.
8B' 8b'J	16cc#	.
.	16dd#JJ	.
=94	=94	=94
8A' 8a'L	16eeLL	.
.	16gg#	.
8G#' 8g#'	16ff#	.
.	16eeJJ	.
8G#' 8g#'	16dd#LL	.
.	16cc#	.
8A' 8a'J	16b#	.
.	16cc#JJ	.
=95	=95	=95
8G#' 8g#'L	16dd#LL	<
.	16a#	.
8F##' 8f##'	16dd#	.
.	16cc#JJ	.
8G#' 8g#'J	16bnLL	.
.	16dd#	.
*clefF4	*	*
[8B	16ee	.
.	16ddnJJ	.
!!LO:LB:g=original
=96	=96	=96
16BLL]	8cc#'	f
16A	.	.
16c#	8a 8aaL	.
16BJJ	.	.
16ALL	8a' 8aa'	.
16G#	.	.
16F#	8cc#' 8ccc#'J	.
16EJJ	.	.
=97	=97	=97
16D#LL<	8cc#' 8ccc#'L	.
16BB	.	.
16C#	8b' 8bb'	.
16D#JJ	.	.
16ELL	8a' 8aa'	.
16F#	.	.
16G#	8g#' 8gg#'J	.
16AJJ	.	.
*clefG2	*	*
=98	=98	=98
16BLL	8g#' 8gg#'L	.
16A#	.	.
16B	8f#' 8ff#'	.
16c#JJ	.	.
16d#LL	8f#' 8ff#'	.
16e	.	.
16f#	8g#' 8gg#'J	.
16eJJ	.	.
=99	=99	=99
16d#LL	8a' 8aa'L	.
16B	.	.
16c#	8b' 8bb'	.
16d#JJ	.	.
16eLL	8g#' 8gg#'J	.
16d#	.	.
16e	[8b	.
16f#JJ	.	.
!!LO:LB:g=original
!!LO:TX:rj:b:i:t=attacca
=100||	=100||	=100||
*>4I	*>4I	*>4I
!!LO:TX:a:B:t=Cio e un poco più adagio come il tema.
!!LO:TX:B:a:t=Un poco meno andante
!!LO:TX:i:a:t=Variation IV
*M9/8	*M9/8	*
*^	*	*
!	!	!LO:TX:c:i:t=piacevole	!
4g#	4.ryy	(16bLL]	.
.	.	16dd#	.
.	.	16ee	.
.	.	16g#	.
8r	.	16a	.
.	.	16bJJ)	.
*v	*v	*	*
*clefF4	*	*
*^	*	*
(16G#LL	4rGG	[4.e	.
16A	.	.	.
16B	.	.	.
16E	.	.	.
16F#	8rGG	.	.
[16G#JJ)	.	.	.
4.G#]	4BB	(8eL]	.
.	.	8g#	.
.	8rGG	8f#J)	.
*v	*v	*	*
=101!|:	=101!|:	=101!|:
*>4A	*>4A	*>4A
*^	*^	*
(16ALL	4rGG	4rdd	(4.e	.
16B	.	.	.	.
16c#	.	.	.	.
16F#	.	.	.	.
16G#	8rGG	8rdd	.	.
16AJJ)	.	.	.	.
4.BB	(16FF#LL	[4.a	4.d#)	.
.	16GG#	.	.	.
.	16AA	.	.	.
.	16FF#	.	.	.
.	16GG#	.	.	.
.	16AAJJ)	.	.	.
4BBB	4.ryy	(8a]L	(16f#LL	.
.	.	.	16g#	.
.	.	8cc#	16a	.
.	.	.	16d#	.
8r	.	8bJ)	16e	.
.	.	.	16f#JJ)	.
!!LO:LB:g=original
=102	=102	=102	=102	=102
(16BLL	4.ryy	(4a	4.e	.
16d#	.	.	.	.
16e	.	.	.	.
16G#	.	.	.	.
16A	.	8g#)	.	.
16BJJ)	.	.	.	.
4.ryy	4BB	[4.ee	(16g#LL	.
.	.	.	16a	.
.	.	.	16b	.
.	.	.	16e	.
.	8r	.	16f#	.
.	.	.	16g#JJ)	.
4B	(16G#LL	8eeL>]	4.ryy	.
.	16A	.	.	.
.	16B	8gg#	.	.
.	16E	.	.	.
8r	16F#	8ff#J	.	.
.	16G#JJ)	.	.	.
=103	=103	=103	=103	=103
4BB	4.ryy	4.ee	(16f#LL	.
.	.	.	16g#	.
.	.	.	16a	.
.	.	.	16f#	.
8r	.	.	16g#	.
.	.	.	16aJJ)	.
4B	(16F#LL	[4.aa	4.dd#	.
.	16G#	.	.	.
.	16A	.	.	.
.	16F#	.	.	.
8r	16G#	.	.	.
.	16AJJ)	.	.	.
4.ryy	(16BBLL<	8aaL]	4.ff#	.
.	16C#	.	.	.
.	16D#	8ccc#	.	.
.	16BB	.	.	.
.	16C#	8bbJ	.	.
.	16D#JJ)	.	.	.
*v	*v	*	*	*
!!LO:LB:g=original
=104	=104	=104	=104
(16BBLL	(4aa	(4ff#	.
16D#	.	.	.
16E	.	.	.
16GG#	.	.	.
16AA	8gg#)	8ee)	.
16BBJJ)	.	.	.
!	!	!	!LO:HP:t=%s poco a poco
[4.EE	(16gg#LL	4rg	<
.	16aa	.	.
.	16bb	.	.
.	16ee	.	.
.	16ff#	8rg	.
.	16gg#JJ)	.	.
(8EEL]	8b	(16g#LL	.
.	.	16a	.
8GG#	8rff	16b	.
.	.	16e	.
8FF#J)	8rff	16f#	.
.	.	16g#JJ)	.
=105	=105	=105	=105
*^	*	*	*
!	!	!	!	!LO:HP:t=crescendo
(4EE	4.ryy	(16aLL	4B	<
.	.	16b	.	.
.	.	16cc#	.	.
.	.	16f#	.	.
8DD#)	.	16g#	8rA	.
.	.	16aJJ)	.	.
([4.AA	8BBBL	(16ff#LL	2.ryy	.
.	.	16gg#	.	.
.	8CC#	16aa	.	.
.	.	16ff#	.	.
.	8BBBJ	16gg#	.	.
.	.	16aaJJ	.	.
8AAL]	8AAAL	16bbLL	.	.
.	.	16ccc#	.	.
8C#	8CC#	16ddd#	.	.
.	.	16bb	.	.
8BBJ)	8BBBJ	16ccc#	.	.
.	.	16ddd#JJ)	.	.
*	*	*v	*v	*
!!LO:LB:g=original
=106	=106	=106	=106
*	*	*8va	*
(4AAA 4AA	2.ryy	(16eeeLL	.
.	.	16fff#	.
.	.	16ggg#	.
.	.	16eee	.
8GGG#) 8GG#	.	16fff#	.
.	.	16ggg#JJ	.
(4FF# 4F#	.	16ggg#LL	.
.	.	16aaa	.
.	.	16bbb	.
.	.	16ggg#	.
8EE) 8E	.	16aaa	.
.	.	16bbbJJ)	.
*	*	*X8va	*
16ELL	4C#	4b (4bb	.
16F#	.	.	>
16Gn	.	.	.
16E	.	.	.
16F#	8Cn	8a# 8aa#)	.
16GJJ	.	.	.
*v	*v	*	*
=107	=107	=107
*>4A1	*>4A1	*>4A1
*^	*	*
(16CnLL	4.Cn	(16bb-LL	.
16E	.	16ggn	.
16Gn	.	16ee	.
16B-	.	16b-	.
16G	.	16ee	.
16EJJ	.	16ggJJ	.
16GLL	4.C	16bb-LL	.
16E	.	16gg	.
16Fn	.	16aan	.
16A	.	16ffn	.
16B-	.	16gg	.
16GJJ)	.	16eeJJ)	.
4.ryy	(8CL<	8ee (8aa#L	.
.	8BBn	8dd#X 8bbn	.
.	8AAJ)	[8b-J)	.
!!LO:LB:g=original
=108	=108	=108	=108
4GG#	4.ryy	(16b-LL]	.
.	.	16dd#	.
.	.	16ee	.
.	.	16g#X	.
8r	.	16a	.
.	.	16bnyJJ)	.
(16G#LL	4.ryy	[4.e	.
16A	.	.	.
16B	.	.	.
16E	.	.	.
16F#	.	.	.
[16G#JJ)	.	.	.
4.G#]	4BB	(8eL]	.
.	.	8g#	.
.	8rGG	8f#J)	.
*v	*v	*	*
=109:|!	=109:|!	=109:|!
*>4A2	*>4A2	*>4A2
*^	*	*
16CnLL	4.Cn	(16bb-LL	.
16E	.	16ggn	.
16Gn	.	16ee	.
16B-	.	16b-	.
16G	.	16ee	.
16EJJ	.	16ggJJ	.
16GLL	4.C	16bb-LL	.
16E	.	16gg	.
16Fn	.	16aan	.
16A	.	16ffn	.
16B-	.	16gg	.
16GJJ	.	16eeJJ)	.
4.ryy	(8CL	8ee (8aa#L	.
.	8BBn)	8dd#X 8bbn)	.
.	8BnJ	8ddnJ	.
*v	*v	*	*
!!LO:LB:g=original
=110	=110	=110
!	!	!LO:DY:t=sempre %s
*ped	*	*
16C#LL	16ddnLL	pp
16E# 16G#X 16Bn	16e# 16g#X 16bn	.
16C#	16dd	.
16E# 16G# 16B	16e# 16g# 16b	.
16C#	16dd	.
16E# 16G# 16BJJ	16e# 16g# 16bJJ	.
16C#LL	(16bb#LL	.
16E# 16G# 16B	16ccc#	.
16C#	16dddn	.
16E# 16G# 16B	16ccc#J	.
*Xped	*	*
16C#	8dddJ)	.
16E# 16G# 16BJJ	.	.
*ped	*	*
16C#LL	16cc#LL	.
16F#X 16A	16f#X 16a	.
16C#	16cc#	.
16F# 16A	16f# 16a	.
16C#	16cc#	.
*Xped	*	*
16F# 16AJJ	16f# 16aJJ	.
=111!|:	=111!|:	=111!|:
*>4B	*>4B	*>4B
*ped	*	*
16BBLL	16cc#LL	.
16D# 16F# 16A	16d#X 16f# 16a	.
16BB	16cc#	.
16D# 16F# 16A	16d# 16f# 16a	.
16BB	16cc#	.
16D# 16F# 16AJJ	16d# 16f# 16aJJ	.
16BBLL	(16bbnLL	.
16D# 16F# 16A	16bb#	.
16BB	16ccc#	.
16D# 16F# 16A	16bb#J	.
*Xped	*	*
16BB	8ccc#J)	.
16D# 16F# 16AJJ	.	.
*ped	*	*
16BBLL	16bnLL	.
16E 16G#	16e 16g#	.
16BB	16b	.
16E 16G#	16e 16g#	.
16BB	16b	.
*Xped	*	*
16E 16G#JJ	16e 16g#JJ	.
!!LO:LB:g=original
=112	=112	=112
*ped	*	*
16AA#LL	16eeLL	.
16C# 16E 16F##	16e 16f## 16cc#	.
16AA#	16ee	<
16C# 16E 16F##	16e 16f## 16cc#	.
16AA#	16ee	.
16C#^ 16E^ 16F##^JJ	16e^ 16f##^ 16cc#^JJ	.
16AA#LL	16eeLL	.
16C# 16E 16F##	16e 16f## 16cc#	.
16AA#	16ee	.
16C# 16E 16F##	16e 16f##	.
16AA#	16ee	.
16C#^ 16E^ 16F##^JJ	16e^ 16f##^ 16cc#^JJ	.
16AA#LL	16eeLL	.
!	!	!LO:DY:b
16C# 16E 16F##	16e 16f## 16cc#	sf
16AA#	16ee	.
*Xped	*	*
!	!	!LO:DY:b
16C# 16E 16F##	16e 16f## 16cc#	sf
16AA#	16dd#	.
!	!	!LO:DY:b
16C# 16D# 16F##JJ	16d# 16f## 16cc#JJ	sf
=113	=113	=113
16GG#LL	16dd#LL	f
16BB 16D# 16G#	16d# 16g# 16b	.
16GG#	16dd#	.
16BB 16D# 16G#	16d# 16g# 16b	.
16GG#	16dd#	.
16BB 16D# 16G#JJ	16d# 16g# 16bJJ	.
16GG#LL	16dd#LL	.
!	!	!LO:DY:b
16C# 16D# 16F##	16d# 16f## 16a#	sf
16GG#	16dd#	.
16C# 16D# 16F##	16d# 16f## 16a#	.
16GG#	16dd#	.
16C# 16D# 16F##JJ	16d# 16f## 16a#JJ	.
16GG#LL	16dd#LL	.
*	*	*^
!	!	!LO:DY:b	!LO:DY:a=2:t=più %s:cj
16BB 16D# 16G#	16d# 16g# 16b	sf	f
*	*	*v	*v
16GG#	16dd#	.
16BB 16D# 16G#	16d# 16g# 16b	.
16GG#	16ee	.
!	!	!LO:DY:b
16BB 16E 16G#JJ	16e 16g# 16bJJ	sf
!!LO:LB:g=original
=114	=114	=114
*^	*^	*
16FF#XLL	2.ryy	(16aanLL	4r	ff
16AA 16C# 16E	.	16bb	.	.
16FF#	.	16ccc#	.	.
16AA 16C# 16E	.	16ff#	.	.
16FF#	.	16gg#	8r	.
16AA 16C# 16EJJ	.	16aaJJ)	.	.
16FF#LL	.	4cc#	(16aLL	.
16AA 16C# 16E	.	.	16b	.
16FF#	.	.	16cc#	.
16AA 16C# 16E	.	.	16a	.
16FF#	.	8r	16b	.
16AA 16C# 16EJJ	.	.	16cc#JJ)	.
(16F#LL	4.E	(16aLL	4c#	.
16G#	.	16b	.	>
16A	.	16cc#	.	.
16F#	.	16a	.	.
16G#	.	16b	8ryy	.
16AJJ)	.	16cc#JJ)	.	.
*v	*v	*	*	*
=115	=115	=115	=115
!	!LO:TX:c:i:t=dolce	!	!
(16D#LL	(4cc#	(16f#LL	.
16E	.	16g#	.
16F#	.	16a	.
16D#	.	16f#	.
16E	8b)	16g#	.
16F#JJ)	.	16aJJ)	.
(16D#LL	(16ff#LL	4.b	.
16C#	16gg#	.	.
16BB	16aa	.	.
16AA	16ff#	.	.
16GG#	16gg#	.	.
16FF#JJ)	16aaJJ)	.	.
(16ELL	(16gg#LL	8b	.
16D#	16aa	.	.
16C#	16bb	8r	.
16BB	16ccc#	.	.
16AA	16ddd#	8r	.
16GG#JJ)	16eeeJJ)	.	.
!!LO:LB:g=original
=116	=116	=116	=116
*^	*	*	*
4.ryy	(16BBLL	(16eeeLL	4r	.
.	16C#	16ddd#	.	.
.	16D#	16ccc#	.	.
.	16E	16bb	.	.
.	16F#	16aa	8r	.
.	16G#JJ)	16gg#JJ)	.	.
(16ELL	4.BB	4.bb	(16gg#LL	.
16F#	.	.	16ff#	.
16G#	.	.	16ee	.
16E	.	.	16gg#	.
16F#	.	.	16ff#	.
16G#JJ)	.	.	16eeJJ)	.
(16F#LL	4.BB	4.aa	(16ff#LL	.
16G#	.	.	16ee	.
16A	.	.	16dd#	.
16F#	.	.	16ff#	.
16G#	.	.	16ee	.
16AJJ)	.	.	16dd#JJ)	.
*v	*v	*	*	*
*	*v	*v	*
=117	=117	=117
*>4B1	*>4B1	*>4B1
*ped	*	*
!	!LO:TX:c:i:t=legato	!
16BBBLL	16aaLL>	.
16DD#	16ff#	.
16FF#	16dd#	.
16AA	16b	<
16BB	16a	.
16D#JJ	16f#JJ	.
16F#LL	16d#LL	.
16A	16B	.
16F#	16d#	.
16D#	16f#	.
16BB	16a	[
16AAJJ	16bJJ	.
(16FF#LL	(16dd#LL	>
16BBBJ	16bbJ	.
8EEJ)	8gg#J)	]
*Xped	*	*
16C#LL	16ddnLL	pp
*ped	*	*
16E# 16G# 16BJJ	16e# 16g# 16bJJ	.
!!LO:LB:g=original
=118	=118	=118
16C#LL	16ddnLL	.
16E# 16G# 16B	16e# 16g# 16b	.
16C#	16dd	.
16E# 16G# 16B	16e# 16g# 16b	.
16C#	16dd	.
16E# 16G# 16BJJ	16e# 16g# 16bJJ	.
16C#LL	(16bb#LL	.
16E# 16G# 16B	16ccc#	.
16C#	16dddn	.
16E# 16G# 16B	16ccc#J	.
*Xped	*	*
16C#	8dddJ)	.
16E# 16G# 16BJJ	.	.
*ped	*	*
16C#LL	16cc#LL	.
16F# 16A	16f# 16a	.
16C#	16cc#	.
16F# 16A	16f# 16a	.
16C#	16cc#	.
*Xped	*	*
16F# 16AJJ	16f# 16aJJ	.
=119:|!	=119:|!	=119:|!
*>4B2	*>4B2	*>4B2
*ped	*	*
!	!LO:TX:c:i:t=legato	!
16BBBLL	16aaLL	.
16DD#	16ff#	.
16FF#	16dd#	.
16AA	16b	<
16BB	16a	.
16D#JJ	16f#JJ	.
16F#LL	16d#LL	.
16A	16B	.
16F#	16d#	.
16D#	16f#	.
16BB	16a	[
16AAJJ	16bJJ	.
(16FF#LL	(16dd#LL	>
16BBBJ	16bbJ	.
*Xped	*	*
8EEJ)	8gg#J)	]
8r	8r	.
*	*clefF4	*
!!LO:LB:g=original
=120||	=120||	=120||
*>Var5	*>Var5	*>Var5
!!LO:TX:a:B:t=Allegro ma non troppo
!!LO:TX:a:i:t=Variation V
*M4/4	*M4/4	*
4r	2G#	f
4EE'	.	.
[2GG#z	[<2E	.
=121	=121	=121
*	*^	*
4GG#]	2A	4E]	.
4FF#'	.	8F#L	.
.	.	8C#J	.
[2AAz	[2F#	4D#	.
.	.	4BB	.
=122	=122	=122	=122
4AA]	4F#]	2B	.
4GG#'	8G#L	.	.
.	8D#J	.	.
[2BBz	4E	[>2G#	.
.	4Dn	.	.
=123	=123	=123	=123
4BB]	2c#	4C# 4G#]	.
4AA'	.	8AL	.
.	.	8EJ	.
4Cn	[2A	4F#	.
[4EE	.	4Cn	.
=124	=124	=124	=124
*^	*	*	*
2BB	4EE]	(4A]	1r	.
.	8FF#L	4A#	.	.
.	8CC#J	.	.	.
[2FF#	4DD#	4B	.	.
.	[4BBB	4An)	.	.
=125	=125	=125	=125	=125
4FF#]	4BBB]	4G#	4r	.
4GG#	8GG#L	4B	4E	.
.	8DD#J	.	.	.
2r	4EE	4B	2G#	.
.	4BBB	4e	.	.
*	*	*v	*v	*
*	*	*clefG2	*
!!LO:LB:g=original
=126	=126	=126	=126
*	*^	*	*
4G#	(4BBB#	2rBB	(>2.e	.
4A	2CC#X	.	.	.
4B-	.	4C#\	.	.
*	*v	*v	*	*
4A	[4CCn 4Cn)	4fn	.
=127	=127	=127	=127
(4GGn	2.CC]	4e 4gn	.
4FFn	.	4fn 4a	.
4EE	.	4g 4b-	.
4FF#)	4BBB	4d#X 4bn)	.
*v	*v	*	*
*	*clefF4	*
=128	=128	=128
8r	2G#X	f
8BBB'L	.	.
8CC#X'	.	.
8DD#X'J	.	.
8EE'L	[<2E	.
8FF#X'	.	.
8GG#X'	.	.
8EE'J	.	.
=129	=129	=129
*	*^	*
8FF#'L	2A	4E]	.
8BBB'	.	.	.
8DD#'	.	8F#L	.
8EE'J	.	8C#J	.
8FF#'L	2F#	4D#	.
8GG#'	.	.	.
8AA'	.	4BB	.
8FF#'J	.	.	.
*	*v	*v	*
*	*clefG2	*
=130	=130	=130
*	*^	*
8BB'L	8r	2g#	.
8D#'	8b'L	.	.
8E'	8cc#'	.	.
8F#'J	8dd#'J	.	.
!	!	!	!LO:DY:t=sempre %s
2G#	8ee'L	[2e	f
.	8ff#'	.	.
.	8gg#'	.	.
.	8ee'J	.	.
=131	=131	=131	=131
2F#	8aaL	4e]	.
.	8cc#	.	.
.	8dd#	8f#L	.
.	8eeJ	8c#J	.
2A	8ff#L	4d#	.
.	8gg#	.	.
.	8aa	[4B	.
.	8ff#J	.	.
!!LO:LB:g=original
=132	=132	=132	=132
2G#	8bbL	4B]	.
.	8dd#	.	.
.	8ee	8g#L	.
.	8ff#J	8d#J	.
2B	8gg#L	4e	.
.	8aa	.	.
.	8bb	4dn	.
.	8gg#J	.	.
=133	=133	=133	=133
!	!LO:TX:i:a:t=staccato	!	!
2A	8cccnL	4cn<	.
.	8ee	.	.
.	8ff#	8aL	.
.	8gg#J	8eJ	.
(<2c#	8aaL	4fn	.
.	8bb	.	.
.	8ccc	4e	.
.	8aaJ	.	.
*clefG2	*	*	*
*	*v	*v	*
=134	=134	=134
*^	*	*
4dn	4cn)	8dddnL	.
.	.	8ff#X	.
8bL	2B	8ggn	.
8f#XJ	.	8aaJ	.
4gn	.	8bbL	.
.	.	8cccn	.
4fn	4Gn	8ddd	.
.	.	8bbJ	.
=135	=135	=135	=135
*	*	*8va	*
*	*	*^	*
8eL	[2cn	8eeeL>	2ryy	.
8fn	.	8dddn	.	.
8g#	.	8eee	.	.
8fJ	.	8fffnJ	.	.
4e	4c]	8gggnL	4eee	.
.	.	8aaa#	.	.
4f#	4B	8bbb	8ddd#	.
.	.	8ddd#J	8rgg	.
*v	*v	*	*	*
*clefF4	*	*	*
*	*v	*v	*
*	*X8va	*
=136	=136	=136
2B	8dddn'L	.
.	8ff#X'	.
.	8gg#X'	.
.	8aa#'J	.
[2Dn	8bb'L	.
.	8ccc#X'	.
.	8ddd'	.
.	8ff#'J	.
!!LO:LB:g=original
=137	=137	=137
4D]	8ee#'	.
.	8c#'L	.
8C#L	8d#X'	.
8BBJ	8e#'J	.
4AA	8f#'L	.
.	8g#'	.
[4FF#	8a'	.
.	8c#'J	.
=138	=138	=138
*^	*^	*
2ryy	8FF#L]	2g#	4B#	.
.	8GGG#	.	.	.
.	8AAA#	.	(2d#	.
.	8BBB#J	.	.	.
[2G#	8CC#'L>	2r	.	.
.	8DD#'	.	.	.
.	8EE'	.	4c#)	.
.	8CC#'J	.	.	.
*	*	*v	*v	*
=139	=139	=139	=139
8G#L]	4DD#	8r	.
8F##	.	8d#'L	.
!LO:TX:i:b:t=m.g.	!	!	!
8D#	4ryy	8e#'	.
8C#J	.	8f##'J	.
4BBn	4ryy	8g#'L	.
.	.	8a#'	.
4rF	[4GG#	8b'	.
.	.	8g#'J	.
=140	=140	=140	=140
*	*	*^	*
2F#	8GG#L]	2aan	8r	.
.	8FF#	.	8anL	.
.	8D#	.	8cc#	.
.	8E#J	.	8bJ	.
[2A	8F#L	[2cc#	8aL	.
.	8C#	.	8c#	.
.	8F#	.	8d#	.
.	8EnJ	.	8eJ	.
=141	=141	=141	=141	=141
4A]	8D#L	4cc#]	8f#L	.
.	8BB	.	8d#	.
2.ryy	8C#	4g# 4b	8e	.
.	8D#J	.	8f#J	.
.	8EL<	4f# 4a	8BL	.
.	8BB	.	8d#	.
.	8C#	[4g#	[[>8e	.
.	8AA#J	.	(8c#J	.
*v	*v	*	*	*
!!LO:LB:g=original
=142	=142	=142	=142
2BB	8e]] 8g#L]	8B)	.
.	8g#' 8ee'	8ryy	.
.	8a' 8ff#'	2.ryy	.
.	8b' 8gg#'J	.	.
4BBB	8cc#' 8aa'L	.	.
.	8dd#' 8bb'	.	.
!LO:DY:rj	!	!	!
[4AAAz	8ee' 8ccc#'	.	.
.	8ff#' 8ddd#'J	.	.
*	*v	*v	*
=143	=143	=143
*	*8va	*
(2AAA]	8ccc#' 8eee'L	.
.	8bb' 8ddd#'	.
.	8ccc# 8eee	.
.	8ddd#' 8fff#'J	.
4GGG#)	8eee' 8ggg#'L	.
.	8fff#' 8aaa'	.
[4Ez	8ggg#' 8bbb'	.
*	*X8va	*
.	8bb'J	.
=144	=144	=144
!	!	!LO:DY:t=sempre %s
4E]	2bb	f
8DnL<	.	.
8C#J	.	.
8BBL	[2ddn	.
8D	.	.
8FF#	.	.
8FF#J	.	.
=145	=145	=145
*	*^	*
8EE#L	4dd]	2g#	.
8C#	.	.	.
8EE#	8cc#L	.	.
8EE#J	8bJ	.	.
8FF#L	4a	4c#	.
8F#	.	.	.
8C#	4r	[4a	.
8C#J	.	.	.
=146	=146	=146	=146
8BB#L	2dd#X	4a]	.
8D#X	.	.	.
8GG#	.	8g#L	.
8GG#J	.	8f#J	.
8C#L	4g#	4e	.
8E	.	.	.
8GG#	[4cc# [4ee	4r	.
8GG#J	.	.	.
=147	=147	=147	=147
8FF##L	4cc#] 4ee]	4.a#	.
8F##	.	.	.
8D#	8dd#L	.	.
8D#J	8cc#J	8a#	.
8GG#L	4g# 4b	4d#	.
8G#	.	.	.
8GG#	4ryy	4b 4dd# 4gg#	.
[8GG#J	.	.	.
!!LO:LB:g=original
=148	=148	=148	=148
4GG#]	2ryy	2cc# 2ee 2aan	.
8FF#L	.	.	.
8EEJ	.	.	.
4DD#	2f# 2a	(8cnL	.
.	.	8A)	.
[4Cn	.	8d#	.
.	.	8d#J	.
=149	=149	=149	=149
*^	*	*	*
2.ryy	4C]	2ee 2gg# 2bb	2ryy	.
.	8BBL	.	.	.
.	8AAJ	.	.	.
.	4GG#	2b 2ee	(8g#L	.
.	.	.	8eJ)	.
8eL	[4G#z	.	4ryy	.
[8eJ	.	.	.	.
*v	*v	*	*	*
*	*v	*v	*
=150	=150	=150
4G#] 4e]	2aa 2ccc#X 2aaa	.
8F# 8d#L	.	.
8E 8c#J	.	.
4D# 4B	8aa (8ccc#L	.
.	8ff# 8aa)	.
4BB 4D#	8aa 8ccc#	.
.	8aa 8ccc#J	.
=151	=151	=151
8C# 8EL>	4aa 4ccc#	.
8BB 8D#	.	.
8C# 8E	8gg# 8bbL	.
8D# 8F#J	8ff# 8aaJ	.
8EL	4b 4gg#	.
8BB	.	.
8EE	4cc# 4ff# 4aan	.
[8EJ	.	.
=152	=152	=152
4E/]	2bb	p
8DnL	.	.
!	!	!LO:DY:t=sempre %s
8C#J	.	p
8BBL	[2ddn	.
8D	.	.
8FF#	.	.
8FF#J	.	.
=153	=153	=153
*	*^	*
8EE#L	4dd]	2g#	.
8C#	.	.	.
8EE#	8cc#L	.	.
8EE#J	8bJ	.	.
8FF#L	4a	4c#	.
8F#	.	.	.
8C#	4r	[4a	.
8C#J	.	.	.
!!LO:LB:g=original
=154	=154	=154	=154
8BB#L	2dd#	4a]	.
8D#X	.	.	.
8GG#	.	8g#L	.
8GG#J	.	8f#J	.
8C#L	4g#	4e	.
8E	.	.	.
8GG#	[4ee	[>4cc#	.
8GG#J	.	.	.
=155	=155	=155	=155
8FF##L	4cc#] 4ee]	4.a#	.
8F##	.	.	.
8D#	8dd#L	.	.
8D#J	8cc#J	8a#	.
8GG#L	4g# 4b	4d#	.
8G#	.	.	.
8GG#	4ryy	4b 4dd# 4gg#	.
[8GG#J	.	.	.
=156	=156	=156	=156
4GG#]	2cc# 2ee 2aan	2ryy	.
8FF#L	.	.	.
8EEJ	.	.	.
4DD#	2f# 2a	(8cnL	.
.	.	8A)	.
[4Cnz	.	8d#	.
.	.	8d#J	.
=157	=157	=157	=157
*^	*	*	*
4C]	2.ryy	2ee 2gg# 2bb	2ryy	.
8BBL	.	.	.	.
8AAJ	.	.	.	.
4GG#	.	2b 2ee	(8g#L	.
.	.	.	8eJ)	.
8eL	[4G#z	.	4ryy	.
[8eJ	.	.	.	.
*v	*v	*	*	*
*	*v	*v	*
=158	=158	=158
4G#] 4e]	2aa 2ccc#X 2aaa	.
8F# 8d#L	.	.
8E 8c#J	.	.
4D# 4B	8aa (8ccc#L	.
.	8ff# 8aa)	.
4BB 4D#	8aa 8ccc#	.
.	8aa 8ccc#J	.
=159	=159	=159
*	*^	*
8C# 8EL	2ryy	4aa 4ccc#	.
8BB 8D#	.	.	.
8C# 8E	.	8gg# 8bbL	.
8D# 8F#J	.	8ff# 8aaJ	.
8E 8G#	8ryy	8ee 8gg#	.
8GG#L	4b 4e	8eL	.
8AA	.	8f#	.
8BBJ	8d# 8b	8f#J	.
*	*v	*v	*
!!LO:LB:g=original
=160||	=160||	=160||
*>Var6	*>Var6	*>Var6
!!LO:TX:a:B:t=Tempo 1º del tema
!!LO:TX:a:i:t=Variation VI
*M3/4	*M3/4	*
*^	*^	*
!	!	!LO:TX:a:i:t=cantabile	!	!
(4BB'	4EE	(4b'	(4g#	p
4BB'	4GG#	4b'	4e	.
4BB')	4FF#	4b')	4f#	.
=161	=161	=161	=161	=161
(4BB'	4AA	(4b'	4d#	.
4BB'	4FF#	4b'	2B)	.
4BB')	4GG#	4b')	.	.
=162	=162	=162	=162	=162
8BBL	(4EE	8bL	(4g#	.
8BBJ	.	8bJ	.	.
8BBL	4GG#	8bL	4e	.
8BBJ	.	8bJ	.	.
8BBL	8FF#L	8bL	4f#)	.
8BBJ	8EEJ)	8bJ	.	.
=163	=163	=163	=163	=163
8BBL	(4DD#	8bL	(4f#	.
8BBJ	.	8bJ	.	.
8BBL	4CC#	8bL	4a#	.
8BBJ	.	8bJ	.	.
8BBL	8BBBL	8bL	8bL	.
8BBJ	8AAnJ)	8dd# 8ff# 8bbJ	8bJ)	.
*v	*v	*	*	*
*	*v	*v	*
=164	=164	=164
*M9/8	*M9/8	*
*^	*^	*
8BBL	4.GG#	4.ee (4.bb	8bL	.
8BB	.	.	8b	.
8BBJ	.	.	8bJ	.
8BBL	4.GG#	4.ee	8bL	.
8AA#	.	.	8a#	.
8BBJ	.	.	8bJ	.
8BBL	4.AAn	4gg#	8bL	.
8BB	.	.	8b	.
8BBJ	.	8ff#)	8bJ	.
!!LO:LB:g=original
=165	=165	=165	=165	=165
16BBLL	(4.FF#	(4.dd#	16bLL	.
16C#	.	.	16cc#	.
16BB	.	.	16b	.
16C#	.	.	16cc#	.
16BB	.	.	16b	.
16C#JJ	.	.	16cc#JJ	.
16BBLL	4.DD#	4.bb	16bLL	.
16C#	.	.	16cc#	.
16BB	.	.	16b	.
16C#	.	.	16cc#	.
16BB	.	.	16b	.
16C#JJ	.	.	16cc#JJ	.
16BBLL	4.FF#)	4.aa)	16bLL	.
16C#	.	.	16cc#	.
16BB	.	.	16b	.
16C#	.	.	16cc#	.
16BB	.	.	16b	.
16C#JJ	.	.	16cc#JJ	.
=166	=166	=166	=166	=166
16BBLL	8EE	4.gg#	16bLL	.
16F#	.	.	16ff#	<
16E	8rEE	.	16ee	.
16F#	.	.	16ff#	.
16E	8rEE	.	16ee	.
16F#JJ	.	.	16ff#JJ	.
16ELL	[4.C#	[4.eee	16eeLL	.
16F#	.	.	16ff#	.
16E	.	.	16ee	.
16F#	.	.	16ff#	.
16E	.	.	16ee	.
16F#JJ	.	.	16ff#JJ	.
16ELL	4C#]	4eee]	16eeLL	.
16F#	.	.	16ff#	.
16E	.	.	16ee	.
16F#	.	.	16ff#	.
16E	8Cn	8eee	16ee	.
16F#JJ	.	.	16ff#JJ	.
!!LO:LB:g=original
=167	=167	=167	=167	=167
16GnLL	4.Cn	4.eee	16eeLL	p
16E	.	.	16ggn	.
16G	.	.	16ee	.
16E	.	.	16gg	.
16G	.	.	16ee	.
16EJJ	.	.	16ggJJ	.
16GGnLL	4.CCn	4.aa#	16eeLL	.
16EE	.	.	16gg	.
16GG	.	.	16ee	.
16EE	.	.	16gg	.
16GG	.	.	16ee	.
16EEJJ	.	.	16ggJJ	.
*v	*v	*	*	*
*	*v	*v	*
=168-	=168-	=168-
*M3/4	*M3/4	*
*^	*^	*
(32BBBLLL	4ryy	4bb	(>32dd#LLL	.
32BB	.	.	32cc#	<
32BBB	.	.	32b	.
32BB)	.	.	32cc#)	.
(32BBB	.	.	(>32b	.
32BB	.	.	32cc#	.
32BBB	.	.	32b	.
32BBJJJ)	.	.	32cc#JJJ)	.
=169	=169	=169	=169	=169
!	!	!LO:TX:c:i:t=poco	!	!
32BBLLL	(8EEL	32bLLL	(8g#XL	.
32C#X	.	32cc#	.	.
32BB	.	32b	.	.
32C#	.	32cc#	.	.
32BB	8GG#J)	32b	8eJ)	.
32C#	.	32cc#	.	.
32BB	.	32b	.	.
32C#JJJ	.	32cc#JJJ	.	.
32BBLLL	(8GG#L	32bLLL	(8eL	.
!	!	!LO:TX:c:i:t=a	!	!
32C#	.	32cc#	.	.
32BB	.	32b	.	.
32C#	.	32cc#	.	.
32BB	8EEJ)	32b	8g#J)	.
32C#	.	32cc#	.	.
32BB	.	32b	.	.
!	!	!LO:TX:c:i:t=poco	!	!
32C#JJJ	.	32cc#JJJ	.	.
32BBLLL	(8EEL	32bLLL	(8g#L	.
32C#	.	32cc#	.	.
32BB	.	32b	.	.
32C#	.	32cc#	.	.
32BB	8FF#J)	32b	8f#J)	.
32C#	.	32cc#	.	.
32BB	.	32b	.	.
32C#JJJ	.	32cc#JJJ	.	.
!!LO:LB:g=original
=170	=170	=170	=170	=170
32BBLLL	(8DD#L	32bLLL	(8f#L	.
32C#	.	32cc#	.	.
32BB	.	32b	.	.
32C#	.	32cc#	.	.
32BB	8AAJ)	32b	8d#J)	.
32C#	.	32cc#	.	.
32BB	.	32b	.	.
32C#JJJ	.	32cc#JJJ	.	.
32BBLLL	(8AAL	32bLLL	(8d#L	.
32C#	.	32cc#	.	.
32BB	.	32b	.	.
32C#	.	32cc#	.	.
32BB	8GG#J)	32b	8eJ)	.
32C#	.	32cc#	.	.
32BB	.	32b	.	.
32C#JJJ	.	32cc#JJJ	.	.
32BBLLL	(8GG#L	32bLLL	(8eL	.
32C#	.	32cc#	.	.
32BB	.	32b	.	.
32C#	.	32cc#	.	.
32BB	8FF#J)	32b	8d#J)	.
32C#	.	32cc#	.	.
32BB	.	32b	.	.
32C#JJJ	.	32cc#JJJ	.	.
=171	=171	=171	=171	=171
32BBLLL	(8EEL	32bLLL	(8g#L	.
32C#	.	32cc#	.	.
32BB	.	32b	.	.
32C#	.	32cc#	.	.
32BB	8GG#J)	32b	8eJ)	.
32C#	.	32cc#	.	.
32BB	.	32b	.	.
32C#JJJ	.	32cc#JJJ	.	.
32BBLLL	(8GG#L	32bLLL	(8eL	.
32C#	.	32cc#	.	.
32BB	.	32b	.	.
32C#	.	32cc#	.	.
32BB	8EEJ)	32b	8g#J)	.
32C#	.	32cc#	.	.
32BB	.	32b	.	.
32C#JJJ	.	32cc#JJJ	.	.
32BBLLL	(8EEL	32bLLL	(8g#L	.
32C#	.	32cc#	.	.
32BB	.	32b	.	.
32C#	.	32cc#	.	.
32BB	8DD#J)	32b	8f#J)	.
32C#	.	32cc#	.	.
32BB	.	32b	.	.
32C#JJJ	.	32cc#JJJ	.	.
!!LO:LB:g=original
=172	=172	=172	=172	=172
32BBLLL	8DD#L	32bLLL	8f#L	.
32C#	.	32cc#	.	.
32BB	.	32b	.	.
32C#	.	32cc#	.	.
32BB	8DD#J	32b	8f#J	.
32C#	.	32cc#	.	.
32BB	.	32b	.	.
32C#JJJ	.	32cc#JJJ	.	.
32BBLLL	8CC#L	32bLLL	8a#L	.
32C#	.	32cc#	.	.
32BB	.	32b	.	.
32C#	.	32cc#	.	.
32BB	8CC#J	32b	8a#J	.
32C#	.	32cc#	.	.
32BB	.	32b	.	.
32C#JJJ	.	32cc#JJJ	.	.
*	*	*Xbrackettup	*	*
[4BBTT	12BBBL	12r	[4bTT	.
.	12AAn	12bbL	.	.
.	12AAJ	12bbJ	.	.
=173	=173	=173	=173	=173
2.BB_TTT	12GG#L	12bbL	2.b_TTT	.
.	12GG#	12aa#	.	.
.	12GG#J	12bbJ	.	.
*	*Xtuplet	*Xtuplet	*	*
.	12GG#L	12bbL	.	.
.	12GG#	12ee	.	.
.	12GG#J	12eeJ	.	.
.	12GG#L	12eeL	.	.
.	12AA	12gg#	.	.
.	12AAJ	12ff#J	.	.
=174	=174	=174	=174	=174
2.BB_TTT	(12AAL	12ff#L	2.b_TTT	.
.	12FF#	12dd#	.	.
.	12FF#J	12dd#J	.	.
.	12FF#L	12dd#L	.	.
.	12DD#	12bb	.	.
.	12DD#J	12bbJ	.	.
.	12DD#L	12bbL	.	.
.	12CC#	12aa#	.	.
.	12DD#J)	12aanJ	.	.
!!LO:LB:g=original
=175	=175	=175	=175	=175
4BB]TTT	12DD#L	12aaL	4b]TTT	.
.	12EE	12gg#	.	.
.	12EEJ	12gg#J	.	.
[2ETT	12rGG	12gg#L	[2eeTT	.
.	12C#L	12eee	.	.
.	12C#J	12eeeJ	.	.
.	12C#L	(12eeeL	.	.
.	12BB#	12ddd#	.	.
.	12C#J	12eeeJ)	.	.
=176	=176	=176	=176	=176
2E]TTT	12C#L	12eeeL	2ee_TTT	.
.	12BB#	12ddd#	.	.
.	12C#J	12eeeJ	.	.
.	12C#L	12eeeL	.	.
.	12Cn	12aa#	.	.
.	12CJ	12aa#J	.	.
[<4BBBTT	4ryy	12aa#L	8eeL]TTT	.
.	.	.	(dd#16qLL<	.
.	.	.	ee16qJJ)	.
.	.	12bb	.	.
.	.	.	8dd#J	.
.	.	12ddn 12ee# 12gg# 12dddnJ	.	.
*v	*v	*	*	*
*	*v	*v	*
=177	=177	=177
2.BBB_TTT	32ddn' 32ee#' 32gg#' 32dddn'LLL	f
.	32bb	.
.	32gg#	.
.	32ee#JJJ	.
.	32dd'LLL	.
.	32ee#	.
.	32gg#	.
.	32bbJJJ	.
.	32gg#'LLL	.
.	32ee#	.
.	32dd	.
.	32bJJJ	.
.	32g#'LLL	.
.	32b	.
.	32dd	.
.	32ee#JJJ	.
.	32dd'LLL<	.
.	32b	.
.	32g#	.
.	32e#JJJ	.
.	32cc#'LLL<	.
.	32b	.
.	32g#	.
.	32e#JJJ	.
!!LO:LB:g=original
=178	=178	=178
2.BBB_TTT	32ccc#'LLL	.
.	32aa	.
.	32ff#	.
.	32cc#JJJ	.
.	32b#'LLL	.
.	32cc#	.
.	32ff#	.
.	32aaJJJ	.
.	32ff#'LLL	.
.	32cc#	.
.	32a	.
.	32f#JJJ	.
.	32e#'LLL	.
.	32f#	.
.	32a	.
.	32cc#JJJ	.
.	32ccn'yLLL	.
.	32a	.
.	32f#	.
.	32enJJJ	.
.	32bn'LLL	.
.	32a	.
.	32f#	.
.	32d#JJJ	.
=179	=179	=179
2.BBB_TTT	32gg#'LLL	.
.	32ee	.
.	32b	.
.	32g#JJJ	.
.	32f##'LLL	.
.	32g#	.
.	32b	.
.	32eeJJJ	.
.	32b'LLL	.
.	32g#	.
.	32e	.
.	32BJJJ	.
.	32A#'LLL	.
.	32B	.
.	32e	.
.	32g#JJJ	.
.	32B#'LLL	.
.	32c#	.
.	32e	.
.	32anJJJ	.
.	32g#'LLL	.
.	32a	.
.	32cc#	.
.	32eeJJJ	.
!!LO:LB:g=original
=180	=180	=180
2.BBB_TTT	32g#LLL	.
.	32a	.
.	32cc#	.
.	32eeJJJ	.
.	32f##LLL	.
.	32g#	.
.	32b	.
.	32eeJJJ	.
.	32f##LLL	.
.	32g#	.
.	32b	.
.	32eeJJJ	.
.	32f#LLL	.
.	32f##	.
.	32a#	.
.	32eeJJJ	.
.	32f#LLL	.
.	32f##	.
.	32a#	.
.	32eeJJJ	.
.	32f##LLL	.
.	32g#	.
.	32b	.
.	32eeJJJ	.
=181	=181	=181
2.BBB_TTT	32AnLLL	.
.	32f#	.
.	32d#	.
.	32aJJJ	.
.	32d#LLL	.
.	32a	.
.	32f#	.
.	32dd#JJJ	.
.	32f#LLL	.
.	32dd#	.
.	32a	.
.	32ff#JJJ	.
.	32aLLL	.
.	32ff#	.
.	32dd#	.
.	32aaJJJ	.
.	32dd#LLL	.
.	32aa	.
.	32ff#	.
.	32ddd#JJJ	.
.	32ff#LLL	.
.	32ddd#	.
.	32aa	.
.	32fff#JJJ	.
!!LO:LB:g=original
=182	=182	=182
*	*8va	*
2.BBB_TTT	32aaLLL	.
.	32fff#	.
.	32ddd#	.
.	32aaaJJJ	.
.	32cccnLLL	.
.	32fff#	.
.	32ddd#	.
.	32aaaJJJ	.
.	32bbLLL	.
.	32fff#	.
.	32ddd#	.
.	32aaaJJJ	.
.	32aa#LLL	.
.	32fff#	.
.	32ddd#	.
.	32aaa#JJJ	.
.	32aanLLL	.
.	32fff#	.
.	32ddd#	.
.	32aaanJJJ	.
.	32gg#LLL	.
.	32eee	.
.	32bb	.
.	32ggg#JJJ	.
=183	=183	=183
2.BBB_TTT	32gg#LLL	.
.	32eee	.
.	32bb	.
.	32ggg#JJJ	.
.	32bbLLK	.
.	32ggg#L	.
.	32eee	.
.	32bbbJJJ	.
.	32aa#LLL	.
.	32fff##	.
.	32eee	.
.	32aaa#JJJ	.
.	32aanLLL	.
.	32fff#	.
.	32ddd#	.
.	32aaanJJJ	.
.	32gg#LLL	.
.	32eee#	.
.	32dddn	.
.	32ggg#JJJ	.
.	32aaLLL	.
.	32fff#	.
.	32ddd#	.
.	32aaaJJJ	.
*	*X8va	*
!!LO:LB:g=original
=184	=184	=184
2BBB]TTT	32aaLLL	.
.	32fff#	.
.	32ddd#	.
.	32aaaJJJ	.
.	32ff#LLL	.
.	32ddd#	.
.	32aa	.
.	32fff#JJJ	.
.	32dd#LLL	.
.	32aa	.
.	32ff#	.
.	32ddd#JJJ	.
.	32aLLL	.
.	32ff#	.
.	32dd#	.
.	32aaJJJ	.
(CC#16qLL	.	.
DD#16qJJ)	.	.
32EE	32gg#LLL	.
*clefG2	*	*
32BLLL	32b	.
32c#	32cc#	.
32d#JJJ	32dd#JJJ	.
32eLLL	32eeLLL	.
32f#	32ff#	.
32g#	32gg#	.
32a#JJJ	32aa#JJJ	.
=185	=185	=185
*	*8va	*
*	*^	*
16b'	8rcccc	[2.bbTT	.
32ddnLLL	.	.	.
32cc#JJJ	.	.	.
32bLLL	8bbb	.	.
32cc#	.	.	.
32b	.	.	.
32aJJJ	.	.	.
32g#LLL	8rcccc	.	.
32a	.	.	.
32g#	.	.	.
32f#JJJ	.	.	.
32e#LLL	8bbb	.	.
32f#	.	.	.
32e#	.	.	.
32dnJJJ	.	.	.
*clefF4	*	*	*
32c#LLL	8rcccc	.	.
32dn	.	.	.
32c#	.	.	.
32BJJJ	.	.	.
32ALLL	8cccc#	.	.
32B	.	.	.
32A	.	.	.
32G#JJJ	.	.	.
!!LO:LB:g=original
=186	=186	=186	=186
16F#'	8rcccc	2.bb_TTT	.
*clefG2	*	*	*
32cc#LLL	.	.	.
32bJJJ	.	.	.
32aLLL	8cccc#	.	.
32b	.	.	.
32a	.	.	.
32g#JJJ	.	.	.
32f#LLL	8rcccc	.	.
32g#	.	.	.
32f#	.	.	.
32e#JJJ	.	.	.
32f#LLL	8aaa	.	.
32en	.	.	.
32d#	.	.	.
32c#JJJ	.	.	.
*clefF4	*	*	*
32BLLL	8rcccc	.	.
32c#	.	.	.
32B	.	.	.
32AJJJ	.	.	.
32G#LLL	8bbb	.	.
32A	.	.	.
32G#	.	.	.
32F#JJJ	.	.	.
=187	=187	=187	=187
16E	8rcccc	2.bb_TTT	.
*clefG2	*	*	*
32bLLL	.	.	.
32aJJJ	.	.	.
32g#LLL	8bbb	.	.
32a	.	.	.
32g#	.	.	.
32f#JJJ	.	.	.
32eLLL	8rcccc	.	.
32f#	.	.	.
32e	.	.	.
32d#JJJ	.	.	.
32eLLL	8ggg#	.	.
32d#	.	.	.
32c#	.	.	.
32BJJJ	.	.	.
*clefF4	*	*	*
32ALLL	8rcccc	.	.
32B	.	.	.
32A	.	.	.
32G#JJJ	.	.	.
32F#LLL	8aaa	.	.
32E	.	.	.
32D#	.	.	.
32C#JJJ	.	.	.
!!LO:LB:g=original
=188	=188	=188	=188
32D#LLL	8raaa	2.bb_TTT	.
32B	.	.	.
32G#	.	.	.
32BJJJ	.	.	.
32d#LLL	8ggg#	.	.
32B	.	.	.
32G#	.	.	.
32BJJJ	.	.	.
32D#LLL	8raaa	.	.
32B	.	.	.
32F##	.	.	.
32BJJJ	.	.	.
32d#LLL	8fff##	.	.
32B	.	.	.
32F##	.	.	.
32BJJJ	.	.	.
32D#LLL	8raaa	.	.
32B	.	.	.
32G#	.	.	.
32BJJJ	.	.	.
32d#LLL	8ggg#	.	.
32B	.	.	.
32G#	.	.	.
32BJJJ	.	.	.
=189	=189	=189	=189
32D#LLL	8raaa	2.bb_TTT	.
32d#	.	.	.
32B	.	.	.
32d#JJJ	.	.	.
32F#LLL	8aaa	.	.
32d#	.	.	.
32B	.	.	.
32d#JJJ	.	.	.
32ALLL	8raaa	.	.
32d#	.	.	.
32B	.	.	.
32d#JJJ	.	.	.
*clefG2	*	*	*
32BLLL	8aaa	.	.
32f#	.	.	.
32d#	.	.	.
32f#JJJ	.	.	.
32d#LLL	8raaa	.	.
32a	.	.	.
32f#	.	.	.
32aJJJ	.	.	.
32eLLL	8cccc#	.	.
32a	.	.	.
32f#	.	.	.
32aJJJ	.	.	.
!!LO:LB:g=original
=190	=190	=190	=190
32d#LLL	8raaa	2.bb_TTT	.
32a	.	.	.
32f#	.	.	.
32aJJJ	.	.	.
32d#LLL	8bbb	.	.
32b	.	.	.
32f#	.	.	.
32bJJJ	.	.	.
32eLLL	8raaa	.	.
32cc#	.	.	.
32g#	.	.	.
32cc#JJJ	.	.	.
32f#LLL	8aaa	.	.
32dd#	.	.	.
32a	.	.	.
32dd#JJJ	.	.	.
32g#LLL	8raaa	.	.
32ee	.	.	.
32dd#	.	.	.
32eeJJJ	.	.	.
32dd#LLL	8ggg#	.	.
32ee	.	.	.
32cc#	.	.	.
32a#JJJ	.	.	.
=191	=191	=191	=191
32bLLL	8raaa	2.bb_TTT	.
32g#	.	.	.
32f#	.	.	.
32eJJJ	.	.	.
32d#LLL	8ggg#	.	.
32e	.	.	.
32d#	.	.	.
32c#JJJ	.	.	.
*clefF4	*	*	*
32BLLL	8raaa	.	.
32A	.	.	.
32G#	.	.	.
32F#JJJ	.	.	.
32ELLL	8bbb	.	.
32D#	.	.	.
32C#	.	.	.
32BBJJJ	.	.	.
32AALLL	8raaa	.	.
32GG#	.	.	.
32FF#	.	.	.
32EEJJJ	.	.	.
32DD#LLL	8aaa	.	.
32BBB	.	.	.
32CC#	.	.	.
32DD#JJJ	.	.	.
!!LO:LB:g=original
=192	=192	=192	=192
*ped	*	*	*
32EELLL	8raaa	2.bb]TTT	.
32FF#	.	.	.
32AA	.	.	.
32BBJJJ	.	.	.
32FF#LLL	8aaa	.	.
32AA	.	.	.
32BB	.	.	.
32D#JJJ	.	.	.
32EELLL	8raaa	.	.
32FF#	.	.	.
32AA	.	.	.
32BBJJJ	.	.	.
32FF#LLL	8fff#	.	.
32AA	.	.	.
32BB	.	.	.
32D#JJJ	.	.	.
32EELLL	8raaa	.	.
32FF#	.	.	.
32AA	.	.	.
32BBJJJ	.	.	.
32FF#LLL	8ddd#	.	.
32AA	.	.	.
32BB	.	.	.
32D#JJJ	.	.	.
*	*X8va	*X8va	*
=193	=193	=193	=193
32EELLL	2.bbTT	8r	>
32FF#	.	.	.
32AA	.	.	.
32BBJJJ	.	.	.
32FF#LLL	.	8aa	.
32AA	.	.	.
32BB	.	.	.
32D#JJJ	.	.	.
32EELLL	.	8rb	.
32FF#	.	.	.
32AA	.	.	.
32BBJJJ	.	.	.
32FF#LLL	.	8ff#	.
32AA	.	.	.
32BB	.	.	.
32D#JJJ	.	.	.
32EELLL	.	8rb	.
32FF#	.	.	.
32AA	.	.	.
32BBJJJ	.	.	.
32FF#LLL	.	8dd#	.
32AA	.	.	.
32BB	.	.	.
32D#JJJ	.	.	.
!!LO:LB:g=original
=194	=194	=194	=194
!	!	!	!LO:HP:t=più dim.
32EELLL	8r	2.bTT	>
32FF#	.	.	.
32AA	.	.	.
32BBJJJ	.	.	.
32FF#LLL	8aa	.	.
32AA	.	.	.
32BB	.	.	.
32D#JJJ	.	.	.
32EELLL	8r	.	.
32FF#	.	.	.
32AA	.	.	.
32BBJJJ	.	.	.
32FF#LLL	8ff#	.	.
32AA	.	.	.
32BB	.	.	.
32D#JJJ	.	.	.
32EELLL	8r	.	.
32FF#	.	.	.
32AA	.	.	.
32BBJJJ	.	.	.
32FF#LLL	8dd#	.	.
32AA	.	.	.
32BB	.	.	.
32D#JJJ	.	.	.
=195	=195	=195	=195
32EELLL	2.bTT	8r	.
32FF#	.	.	.
32AA	.	.	.
32BBJJJ	.	.	.
32FF#LLL	.	8a	.
32AA	.	.	.
32BB	.	.	.
32D#JJJ	.	.	.
32EELLL	.	8r	.
32FF#	.	.	.
32AA	.	.	.
32BBJJJ	.	.	.
32FF#LLL	.	8f#	.
32AA	.	.	.
32BB	.	.	.
32D#JJJ	.	.	.
32EELLL	.	8re	pp
32FF#	.	.	.
32AA	.	.	.
32BBJJJ	.	.	.
32FF#LLL	.	8d#	.
32AA	.	.	.
32BB	.	.	.
*Xped	*	*	*
32D#JJJ	.	.	.
.	.	(16qa#LL	.
.	.	16qbJJ)	.
*	*v	*v	*
!!LO:LB:g=original
=196	=196	=196
*>Theme	*>Theme	*>Theme
*	*^	*
!!LO:TX:a:i:t=cantabile
!	!LO:TX:c:i:t=sempre legato	!	!
(<4EE	(4g#	4B	.
4GG#	4.e	4B	.
4AA	.	4c#	.
.	8f#	.	.
*	*v	*v	*
=197	=197	=197
4BB\	4F# 4d#	.
4C#	2F#< 2A< 2B<)	.
4D#)	.	.
=198	=198	=198
*	*^	*
(4E	(4g#	4G# 4B	.
4G#	4.e	4B	.
4A#)	.	4c#	.
.	8f#)	.	.
*	*v	*v	*
=199	=199	=199
(4B	4d# (>4f#	.
4F#	4c# 4e 4a#	.
8BBL	4d# 4f# 4b)	.
8AAAn 8AAnJ)	.	.
=200	=200	=200
*^	*^	*
4GG#	(2GGG#	4e 4g# (4b	4B	.
4GG#	.	4.e	4B	.
4AA	4AAA	.	4c#	.
.	.	16g#LL	.	.
.	.	16f#JJ)	.	.
*	*	*v	*v	*
*v	*v	*	*
!!LO:LB:g=original
=201	=201	=201
4BBB\ 4BB\	(>4F# 4d#	.
4CC# 4C#	4E< 4B<	.
.	(<32qA<LLL	.
.	32qB<	.
.	32qA<	.
.	32qG#<JJJ)	.
4DD# 4D#)	4F#< 4A<)	.
=202	=202	=202
*^	*	*
4ryy	(4EE 4E	(4G#<	.
4E/	4CC# 4C#	4.e	<
4E/	4CCn) 4Cn	.	.
.	.	8A#)	.
*	*	*clefF4	*
=203	=203	=203	=203
*	*	*^	*
(4EE	2CCn	(2A#	(4Gn	p
4GGn	.	.	4E	.
4BB)	4BBB	4B)	4D#)	.
*	*	*v	*v	*
*	*	*clefG2	*
=204	=204	=204	=204
*	*	*^	*
4B	4rBB	(4b	4r	.
4B	(4D#	4.b	4f#	.
4B	4E#	.	4g#X	.
.	.	8cc#	.	.
*v	*v	*	*	*
=205	=205	=205	=205
4F# 4B	4b	4r	.
4C#X 4B	4.an	4e	.
4D# 4B)	.	4f#	.
.	8b)	.	.
!!LO:LB:g=original
=206	=206	=206	=206
4E (4B	(4a	4r	.
4BB 4B	4.g#	4e	<
4C# 4c#)	.	4e	.
.	8ee)	.	.
*	*v	*v	*
=207	=207	=207
4D# (4B	4d# (>4g#	[
4D# 4A#	4c# 4f##	>
4GG#\ 4G#\)	4B 4g#)	]]
=208	=208	=208
.	(An32qLLL	.
.	c#32q	.
.	f#X32qJJJ)	.
4FF# 4F#	4a	.
.	.	<
4F# 4A	(4.a	.
4E 4F# 4A	.	.
.	8cc#)	.
=209	=209	=209
[[D#32qLLL	.	.
[[F#32q	.	.
[[A32q	.	.
[>B32qJJJ	.	.
(d#>32qLLL>	.	.
f#>32q	.	.
a>32qJJJ)	.	.
2D#__ 2F#__ 2A__< 2B_	(4.cc#	sf >
.	8b)	.
8D#] 8F#] 8A] 8BL]	(8f#' 8a'L	]]
8E 8G# 8BJ	8e') 8g#'J	.
=210	=210	=210
*^	*^	*
4rA	2BB	(8.g#L	4e	>
.	.	16aJk	.	.
(4G#	.	4.b	(4e	.
4F#)	4BB	.	4d#)	.
.	.	8a)	.	.
*v	*v	*	*	*
*	*v	*v	*
=211	=211	=211
!!LO:TX:a:B:t=Ritard.
(>4EE	[2B 2d# 2f# (>2a	.
4BB	.	.
*ped	*	*
4EE 4E)	4B] 4e 4g#)	.
==	==	==
*-	*-	*-
!!!RDF**kern: > = above
!!!RDF**kern: < = below
!!!RDF**dynam: > = dim.
!!!verovio: beamFrenchStyle
!!!LOR: Durand 1915, plates 9327/9328, Paul Dukas, ed.
!!!PED: Dukas, Paul
!!!URL-vhv: https://verovio.humdrum.org/?file=beethoven/sonatas/sonata30-3.krn
!!!URL-pdf: https://github.com/craigsapp/beethoven-piano-sonatas/blob/master/reference-edition/sonata30-3.pdf
!!!ENC: Craig Stuart Sapp
!!!END: 2008/11/11
!!!EED: Craig Stuart Sapp
!!!EEV: 2023/04/07
